src/assets/svg/icons/fa/nuevos/classic/thin/meter-bolt classic thin.svg

<svg xmlns="http://www.w3.org/2000/svg" viewBox="0 0 640 512"><!--! Font Awesome Pro 6.4.0 by @fontawesome - https://fontawesome.com License - https://fontawesome.com/license (Commercial License) Copyright 2023 Fonticons, Inc. --><path d="M256 496c71.1 0 134.9-30.9 178.9-80h15.4l-7.5 15c-46.7 49.8-113.1 81-186.8 81C114.6 512 0 397.4 0 256S114.6 0 256 0C393 0 504.8 107.5 511.7 242.8L496 255.3C495.6 123.1 388.3 16 256 16C123.5 16 16 123.5 16 256s107.5 240 240 240zM176 160c0-8.8-7.2-16-16-16s-16 7.2-16 16v32c0 8.8 7.2 16 16 16s16-7.2 16-16V160zm-48 0c0-17.7 14.3-32 32-32s32 14.3 32 32v32c0 17.7-14.3 32-32 32s-32-14.3-32-32V160zm144 32V160c0-8.8-7.2-16-16-16s-16 7.2-16 16v32c0 8.8 7.2 16 16 16s16-7.2 16-16zm-16-64c17.7 0 32 14.3 32 32v32c0 17.7-14.3 32-32 32s-32-14.3-32-32V160c0-17.7 14.3-32 32-32zm112 32c0-8.8-7.2-16-16-16s-16 7.2-16 16v32c0 8.8 7.2 16 16 16s16-7.2 16-16V160zm-48 0c0-17.7 14.3-32 32-32s32 14.3 32 32v32c0 17.7-14.3 32-32 32s-32-14.3-32-32V160zM539.6 344.8L592 240 432 368h70.1c5.5 0 10.7 2.9 13.6 7.6s3.2 10.6 .7 15.6L464 496 624 368H553.9c-5.5 0-10.7-2.9-13.6-7.6s-3.2-10.6-.7-15.6zm66.7-97.7L561.9 336l-8 16h17.9H624c6.8 0 12.9 4.3 15.1 10.7s.2 13.5-5.1 17.8l-160 128c-5.9 4.7-14.2 4.7-20.1-.1s-7.6-12.9-4.3-19.6L494.1 400l8-16H484.2 432c-6.8 0-12.8-4.3-15.1-10.7s-.2-13.5 5.1-17.8l160-128c5.9-4.7 14.2-4.7 20.1 .1s7.6 12.9 4.2 19.6z"/></svg>

<svg xmlns="http://www.w3.org/2000/svg" viewBox="0 0 640 512"><path d="M256 496C327.1 496 390.9 465.1 434.9 416H450.3L442.8 431C396.1 480.9 329.7 512 256 512C114.6 512 0 397.4 0 256C0 114.6 114.6 0 256 0C392.1 0 504.8 107.5 511.7 242.8L496 255.3C495.6 123.1 388.3 16 256 16C123.5 16 16 123.5 16 256C16 388.5 123.5 496 256 496H256zM128 160C128 142.3 142.3 128 160 128C177.7 128 192 142.3 192 160V192C192 209.7 177.7 224 160 224C142.3 224 128 209.7 128 192V160zM160 144C151.2 144 144 151.2 144 160V192C144 200.8 151.2 208 160 208C168.8 208 176 200.8 176 192V160C176 151.2 168.8 144 160 144zM288 160V192C288 209.7 273.7 224 256 224C238.3 224 224 209.7 224 192V160C224 142.3 238.3 128 256 128C273.7 128 288 142.3 288 160zM272 192V160C272 151.2 264.8 144 256 144C247.2 144 240 151.2 240 160V192C240 200.8 247.2 208 256 208C264.8 208 272 200.8 272 192zM320 160C320 142.3 334.3 128 352 128C369.7 128 384 142.3 384 160V192C384 209.7 369.7 224 352 224C334.3 224 320 209.7 320 192V160zM352 144C343.2 144 336 151.2 336 160V192C336 200.8 343.2 208 352 208C360.8 208 368 200.8 368 192V160C368 151.2 360.8 144 352 144zM606.3 247.2L553.9 352H624C630.8 352 636.9 356.3 639.1 362.7C641.3 369.1 639.3 376.2 633.1 380.5L473.1 508.5C468.1 513.2 459.8 513.2 453.9 508.4C448.1 503.7 446.3 495.6 449.7 488.8L502.1 384H432C425.2 384 419.2 379.7 416.9 373.3C414.7 366.9 416.7 359.8 422 355.5L582 227.5C587.9 222.8 596.2 222.8 602.1 227.6C607.9 232.3 609.7 240.4 606.3 247.2zM592 240L432 368H502.1C507.7 368 512.8 370.9 515.7 375.6C518.6 380.3 518.9 386.2 516.4 391.2L464 496L624 368H553.9C548.3 368 543.2 365.1 540.3 360.4C537.4 355.7 537.1 349.8 539.6 344.8L592 240z"/></svg>
